!!!COM:	Josquin des Pres
**kern	**kern
*part2	*part1
*staff2	*staff1
*clefF4	*clefGv2
*k[b-]	*k[b-]
*M2/1	*M2/1
=1-	=1-
1G	[0d
2F	.
[2G	.
=2	=2
4G]	0d]
4A	.
2B-	.
2G	.
[2B-	.
=3	=3
2B-]	1d
4A	.
4G	.
2A	2c
2D	[2d
=4	=4
1D	4d]
.	4e
.	2f
1r	2d
.	[2f
=5	=5
1D	2f]
.	4e
.	4d
2C	2e
[2D	2A
=6	=6
4D]	1A
4E	.
2F	.
2D	1r
[2F	.
=7	=7
2F]	1A
4E	.
4D	.
2E	2G
2D	[2A
=8	=8
1A	4A]
.	4B-
.	2c
1r	2A
.	[2c
=9	=9
1A	2c]
.	4B-
.	4A
2G	2B-
[2A	2A
=10	=10
4A]	2.c
4B-	.
2c	.
.	4F
2A	1F
[2c	.
=11	=11
2c]	2r
4B-	2c
4A	.
2B-	2d
2A	2f
=12	=12
2.c	2e
.	2A
4F	.
2F	2.c
[2A	.
.	4F
=13	=13
4A]	2F
4D	.
2D	2.f
2.d	.
.	4B-
.	2B-
4G	.
=14	=14
2G	2d
2d	2G
4G	2.d
4A	.
4B-	.
4c	4e
=15	=15
2A	4f
.	4g
4G	2e
4A	.
4B-	4d
4c	4e
2A	4f
.	4g
=16	=16
2G	4e
.	4d
2F	2f
2G	4e
.	4d
2F	[2a
=17	=17
1G	4a]
.	4g
.	1g
1A	.
.	2f
=18	=18
0G	0g
==	==
*-	*-
